X:1
T:Title
%%score { ( 1 4 ) | ( 2 3 ) }
L:1/8
Q:1/4=100
M:2/4
K:F
V:1 treble nm="Grand Piano"
V:4 treble 
V:2 bass 
V:3 bass 
V:1
 [Ac][A,FA] [FB][B,EG] | [A,DF]2[K:bass] [F,C]2 | [F,B,D][F,CE][K:treble] [B,DF][DFB] | [CFA]4 | %4
w: Thoro~Harris * * *||||
 [B,EA][B,EG] [B,E^F][B,EG] | d2 c2 | =Bf ed | [Ec]4 | [Ed][CEG] [CEA][CEB] | .[CFc]2 [A,F]2 | %10
w: ||||||
 [FB][B,E] [A,DF][DEG] | [^CEA]4 | [DFA][Fc] [FB][_EA] | A>G [Fd]2 | [Fc][A,F] [CEA]>[B,EG] | %15
w: |||||
 [A,F]4 | [G,EG][CEG] [=B,FA][DFG] | [CEG]2 [Ec]2 | =Bc dB | [Ec]4 | [EG][_EA] [=EB][_EA] | %21
w: ||||||
 [EG]2 [Gc]2 | [Ad][Ge] [Af]=B |[M:5/8] [Ec]2 [GB]3 |[M:2/4] [CFA][CF] [DFG][Ed] | z2 A2 | %26
w: |||||
 [DF][DE] [DF][DB] | [^CA]4 | [F,D][G,^CE][K:treble] [A,DF][B,EG] | %29
w: |||
[M:9/16] [CFA][CEB]/-[CEB]/[E^Fc]-[EFc]/[DGB] | %30
w: |
[M:2/4] [FA]2 .[CEG]2[Q:1/4=98][Q:1/4=97][Q:1/4=95][Q:1/4=94][Q:1/4=92][Q:1/4=91][Q:1/4=89][Q:1/4=88][Q:1/4=86][Q:1/4=84][Q:1/4=83][Q:1/4=81][Q:1/4=80][Q:1/4=78][Q:1/4=77] | %31
w: |
 [A,F]4 |] %32
w: |
V:2
 F,F, [C,G,]C, | D,2 A,,2 | B,,B,, B,,B,, | F,4 | C,C, C,C, | [F,A,F]2 [F,A,F]2 | %6
 [G,DF][G,A] [G,A,G][G,=B,F] | [C,C]4 | [C,B,]B,, A,,G,, | z E D,_E, | [D,G,]^C, D,B,, | A,,4 | %12
 D,[_E,A,] [D,B,][C,F,] | [B,,F,]2 [=B,,_A,]2 | [C,A,]D, C,>C, | F,4 | C,C, G,G, | C,2 [C,G,]2 | %18
 [G,D][G,CE] [_A,=B,F][G,DF] | [C,C]4 | [C,B,][C,A,] [C,G,][C,^F,] | [C,G,]2 [E,G,]2 | %22
 [F,C][E,^C] [D,D][G,F] |[M:5/8] G,2 C3 |[M:2/4] F,A,, B,,[C,B,] | [F,A,F]2 .[F,CF]2 | %26
 [B,,B,][B,,G,] [B,,F,][G,,F,] | E,2 .G,2 | B,,A,, D,C, | %29
[M:9/16] [F,,F,][G,,G,]/-[G,,G,]/[A,,A,]-[A,,A,]/[B,,B,] |[M:2/4] z A, z B, | F,4 |] %32
V:3
 x4 | x4 | x4 | x4 | x4 | x4 | x4 | x4 | x4 | A,,2 z2 | x4 | x4 | x4 | x4 | x4 | x4 | x4 | x4 | %18
 x4 | x4 | x4 | x4 | x4 |[M:5/8] C,-C,- C,3 |[M:2/4] x4 | x4 | x4 | A,,4 | x4 |[M:9/16] x9/2 | %30
[M:2/4] [C,C]2 C,2 | x4 |] %32
V:4
 x4 | x2[K:bass] x2 | x2[K:treble] x2 | x4 | x4 | x4 | x4 | x4 | x4 | x4 | x4 | x4 | x4 | D2 z2 | %14
 x4 | x4 | x4 | x4 | x4 | x4 | x4 | x4 | x4 |[M:5/8] x5 |[M:2/4] x4 | c2 z E | x4 | x4 | %28
 x2[K:treble] x2 |[M:9/16] x9/2 |[M:2/4] x4 | x4 |] %32

